Contents/humanities/8values/value_images/nation.svg

<?xml version="1.0" encoding="UTF-8" standalone="no"?>
<!-- Created with Inkscape (http://www.inkscape.org/) -->

<svg
   xmlns:dc="http://purl.org/dc/elements/1.1/"
   xmlns:cc="http://creativecommons.org/ns#"
   xmlns:rdf="http://www.w3.org/1999/02/22-rdf-syntax-ns#"
   xmlns:svg="http://www.w3.org/2000/svg"
   xmlns="http://www.w3.org/2000/svg"
   xmlns:sodipodi="http://sodipodi.sourceforge.net/DTD/sodipodi-0.dtd"
   xmlns:inkscape="http://www.inkscape.org/namespaces/inkscape"
   width="200"
   height="200"
   viewBox="0 0 52.916668 52.916666"
   version="1.1"
   id="svg8"
   inkscape:version="0.92.1 r15371"
   sodipodi:docname="might.svg">
  <defs
     id="defs2">
    <inkscape:path-effect
       effect="envelope"
       id="path-effect4658"
       is_visible="true"
       yy="true"
       xx="true"
       bendpath1="m -199.08406,108.42369 h 7.0057"
       bendpath2="m -192.07836,108.42369 v 6.75242"
       bendpath3="m -199.08406,115.17611 h 7.0057"
       bendpath4="m -199.08406,108.42369 v 6.75242" />
    <inkscape:path-effect
       effect="bend_path"
       id="path-effect4656"
       is_visible="true"
       bendpath="m -192.00142,114.60623 c 2.12577,-0.53066 4.48261,0.85111 7.0057,0"
       prop_scale="1"
       scale_y_rel="false"
       vertical="false"
       bendpath-nodetypes="cc" />
    <inkscape:path-effect
       effect="bounding_box"
       id="path-effect4654"
       is_visible="true"
       linkedpath=""
       visualbounds="false" />
  </defs>
  <sodipodi:namedview
     id="base"
     pagecolor="#ffffff"
     bordercolor="#666666"
     borderopacity="1.0"
     inkscape:pageopacity="0.0"
     inkscape:pageshadow="2"
     inkscape:zoom="0.70710678"
     inkscape:cx="859.81981"
     inkscape:cy="-94.531022"
     inkscape:document-units="mm"
     inkscape:current-layer="layer1"
     showgrid="false"
     fit-margin-top="0"
     fit-margin-left="0"
     fit-margin-right="0"
     fit-margin-bottom="0"
     inkscape:window-width="1920"
     inkscape:window-height="1016"
     inkscape:window-x="0"
     inkscape:window-y="27"
     inkscape:window-maximized="1"
     showguides="false"
     inkscape:object-nodes="true"
     units="px"
     inkscape:snap-page="true" />
  <metadata
     id="metadata5">
    <rdf:RDF>
      <cc:Work
         rdf:about="">
        <dc:format>image/svg+xml</dc:format>
        <dc:type
           rdf:resource="http://purl.org/dc/dcmitype/StillImage" />
        <dc:title></dc:title>
      </cc:Work>
    </rdf:RDF>
  </metadata>
  <g
     inkscape:label="Layer 1"
     inkscape:groupmode="layer"
     id="layer1"
     transform="translate(249.80447,-91.409467)">
    <g
       style="stroke-width:0.5"
       transform="matrix(2,0,0,2,-249.80447,91.409466)"
       id="g5250-7">
      <rect
         y="-1.110223e-16"
         x="0"
         height="26.458334"
         width="26.458334"
         id="rect5238-5"
         style="opacity:1;fill:#222222;fill-opacity:1;fill-rule:nonzero;stroke:none;stroke-width:0.25;stroke-linecap:butt;stroke-linejoin:round;stroke-miterlimit:4;stroke-dasharray:none;stroke-dashoffset:0;stroke-opacity:0.90944878;paint-order:normal"
         rx="1.984375"
         ry="1.984375" />
      <rect
         style="opacity:1;fill:#ff9800;fill-opacity:1;fill-rule:nonzero;stroke:none;stroke-width:0.25;stroke-linecap:butt;stroke-linejoin:round;stroke-miterlimit:4;stroke-dasharray:none;stroke-dashoffset:0;stroke-opacity:0.90944878;paint-order:normal"
         id="rect5240-3"
         width="23.8125"
         height="23.8125"
         x="1.322917"
         y="1.322917"
         rx="1.3229166"
         ry="1.3229166" />
      <path
         style="fill:#222222;fill-opacity:1;stroke-width:0.5"
         d="m 9.194797,3.1147791 c 1.056888,0.00132 1.623322,0.2903376 2.251958,1.1488496 1.303351,1.779948 1.663667,2.0235815 2.992571,2.0235815 1.131117,0 1.999988,-0.2472541 4.53192,-1.2902062 0.291436,-0.1200497 0.742534,2.3377773 0.988433,5.384955 l 0.144686,1.791452 -0.744105,0.3263 c -2.03165,0.890578 -3.801595,1.224197 -4.827645,0.909923 -0.599746,-0.183699 -1.070232,-0.659159 -1.905691,-1.925412 -0.71593,-1.08509 -1.607124,-1.420772 -3.097018,-1.166444 -0.960627,0.163979 -2.7927846,0.776939 -2.8220462,0.944111 -0.010795,0.06167 0.4318073,2.123125 0.9834026,4.580999 l 0.9128532,4.067957 A 9.4470784,11.251728 47.500875 0 1 7.3626246,19.787882 C 7.2403646,18.954901 6.771541,16.743298 5.7890549,12.326963 4.8053238,7.9050302 4.0781378,4.3889102 4.11874,4.2502325 4.2347987,3.8537606 4.5351881,3.7465127 4.8272077,3.9973102 L 5.0745532,4.2096454 5.8024122,3.9213328 C 7.0886386,3.4119394 8.3430436,3.1136965 9.194797,3.1147791 Z M 5.3738291,5.057386 c -0.010901,1.228e-4 -0.020092,0.00325 -0.02727,0.0096 C 5.3198511,5.090703 5.5653512,6.3057974 5.8922128,7.7671605 6.2898025,9.5447691 6.5196065,10.365034 6.586209,10.245802 6.640973,10.147782 6.7339855,9.6661787 6.7929403,9.1755291 6.9248645,8.0780798 6.7821853,7.1123533 6.3633539,6.2680136 6.0962358,5.7295265 5.5373425,5.0554746 5.3738288,5.0573836 Z"
         id="path4773-5"
         inkscape:connector-curvature="0" />
      <path
         inkscape:connector-curvature="0"
         id="path5244-6"
         d="m 0.7276035,18.520835 v 4.167188 c 0,1.539081 1.2390438,2.778125 2.778125,2.778125 H 22.952604 c 1.539081,0 2.778125,-1.239044 2.778125,-2.778125 v -4.167188 z"
         style="opacity:1;fill:#222222;fill-opacity:1;fill-rule:nonzero;stroke:none;stroke-width:0.25;stroke-linecap:butt;stroke-linejoin:round;stroke-miterlimit:4;stroke-dasharray:none;stroke-dashoffset:0;stroke-opacity:0.90944878;paint-order:normal" />
      <g
         aria-label="NATION"
         style="font-style:normal;font-variant:normal;font-weight:500;font-stretch:normal;font-size:4.23333311px;line-height:2.11666656px;font-family:Montserrat;-inkscape-font-specification:'Montserrat Medium';text-align:center;letter-spacing:0px;text-anchor:middle;opacity:1;fill:#eeeeee;fill-opacity:1;fill-rule:nonzero;stroke:none;stroke-width:2.11666656;stroke-linecap:butt;stroke-linejoin:round;stroke-miterlimit:4;stroke-dasharray:none;stroke-dashoffset:0;stroke-opacity:1;paint-order:stroke fill markers"
         id="text4627-3-2">
        <path
           inkscape:connector-curvature="0"
           d="M 7.3218147,20.325294 H 7.872148 v 2.963334 H 7.3345147 L 5.8105148,21.248161 v 2.040467 H 5.2559481 v -2.963334 h 0.5376333 l 1.5282333,2.0447 z"
           style="font-style:normal;font-variant:normal;font-weight:500;font-stretch:normal;font-size:4.23333311px;font-family:Montserrat;-inkscape-font-specification:'Montserrat Medium';text-align:center;letter-spacing:0px;text-anchor:middle;fill:#eeeeee;fill-opacity:1;stroke-width:2.11666656"
           id="path5761" />
        <path
           inkscape:connector-curvature="0"
           d="M 10.789179,23.288628 10.526712,22.662094 H 9.0789126 L 8.8164459,23.288628 H 8.2280126 l 1.2996333,-2.963334 h 0.5884331 l 1.2827,2.963334 z M 9.2821126,22.175261 h 1.0414004 l -0.5164671,-1.2446 z"
           style="font-style:normal;font-variant:normal;font-weight:500;font-stretch:normal;font-size:4.23333311px;font-family:Montserrat;-inkscape-font-specification:'Montserrat Medium';text-align:center;letter-spacing:0px;text-anchor:middle;fill:#eeeeee;fill-opacity:1;stroke-width:2.11666656"
           id="path5763" />
        <path
           inkscape:connector-curvature="0"
           d="m 11.12692,20.325294 h 2.417233 v 0.503767 h -0.922866 v 2.459567 h -0.5715 V 20.829061 H 11.12692 Z"
           style="font-style:normal;font-variant:normal;font-weight:500;font-stretch:normal;font-size:4.23333311px;font-family:Montserrat;-inkscape-font-specification:'Montserrat Medium';text-align:center;letter-spacing:0px;text-anchor:middle;fill:#eeeeee;fill-opacity:1;stroke-width:2.11666656"
           id="path5765" />
        <path
           inkscape:connector-curvature="0"
           d="m 13.945857,20.325294 h 0.567267 v 2.963334 h -0.567267 z"
           style="font-style:normal;font-variant:normal;font-weight:500;font-stretch:normal;font-size:4.23333311px;font-family:Montserrat;-inkscape-font-specification:'Montserrat Medium';text-align:center;letter-spacing:0px;text-anchor:middle;fill:#eeeeee;fill-opacity:1;stroke-width:2.11666656"
           id="path5767" />
        <path
           inkscape:connector-curvature="0"
           d="m 16.590168,20.287194 q 0.440267,0 0.8001,0.198967 0.364067,0.198967 0.5715,0.5461 0.207433,0.347133 0.207433,0.770467 0,0.423333 -0.207433,0.7747 -0.207433,0.347133 -0.5715,0.550333 -0.359833,0.2032 -0.8001,0.2032 -0.440267,0 -0.804333,-0.2032 -0.359834,-0.2032 -0.567267,-0.550333 -0.207433,-0.351367 -0.207433,-0.7747 0,-0.423334 0.207433,-0.770467 0.207433,-0.347133 0.567267,-0.5461 0.364066,-0.198967 0.804333,-0.198967 z m 0.0085,0.508 q -0.270934,0 -0.503767,0.135467 -0.232833,0.131233 -0.3683,0.364067 -0.135467,0.2286 -0.135467,0.508 0,0.2794 0.135467,0.512233 0.1397,0.232833 0.3683,0.3683 0.232833,0.135467 0.503767,0.135467 0.2667,0 0.4953,-0.135467 0.2286,-0.135467 0.359833,-0.3683 0.135467,-0.232833 0.135467,-0.512233 0,-0.2794 -0.135467,-0.508 -0.131233,-0.232834 -0.359833,-0.364067 -0.2286,-0.135467 -0.4953,-0.135467 z"
           style="font-style:normal;font-variant:normal;font-weight:500;font-stretch:normal;font-size:4.23333311px;font-family:Montserrat;-inkscape-font-specification:'Montserrat Medium';text-align:center;letter-spacing:0px;text-anchor:middle;fill:#eeeeee;fill-opacity:1;stroke-width:2.11666656"
           id="path5769" />
        <path
           inkscape:connector-curvature="0"
           d="m 20.732882,20.325294 h 0.550333 v 2.963334 h -0.537633 l -1.524,-2.040467 v 2.040467 h -0.554567 v -2.963334 h 0.537633 l 1.528234,2.0447 z"
           style="font-style:normal;font-variant:normal;font-weight:500;font-stretch:normal;font-size:4.23333311px;font-family:Montserrat;-inkscape-font-specification:'Montserrat Medium';text-align:center;letter-spacing:0px;text-anchor:middle;fill:#eeeeee;fill-opacity:1;stroke-width:2.11666656"
           id="path5771" />
      </g>
    </g>
  </g>
</svg>

<svg xmlns:xlink="http://www.w3.org/1999/xlink" width="200" height="200" viewBox="0 0 52.917 52.917"><g transform="matrix(2 0 0 2 0 0)"><rect width="26.458" height="26.458" fill="#222" rx="1.984"/><rect width="23.813" height="23.813" x="1.323" y="1.323" fill="#ff9800" rx="1.323"/><g fill="#222"><path d="M9.195 3.115c1.057.001 1.623.29 2.252 1.149 1.303 1.78 1.664 2.024 2.993 2.024 1.131 0 2-.247 4.532-1.29.291-.12.743 2.338.988 5.385l.145 1.791-.744.326c-2.032.891-3.802 1.224-4.828.91-.6-.184-1.07-.659-1.906-1.925-.716-1.085-1.607-1.421-3.097-1.166-.961.164-2.793.777-2.822.944-.011.062.432 2.123.983 4.581l.913 4.068a9.447 11.252 47.501 0 1-1.241-.123c-.122-.833-.591-3.045-1.574-7.461L4.119 4.25c.116-.396.416-.504.708-.253l.247.212.728-.288c1.286-.509 2.541-.808 3.392-.807zM5.374 5.057c-.011 0-.02.003-.027.01-.027.024.219 1.239.546 2.7.398 1.778.627 2.598.694 2.479.055-.098.148-.58.207-1.07.132-1.097-.011-2.063-.43-2.908-.267-.538-.826-1.213-.99-1.211"/><path d="M.728 18.521v4.167a2.77 2.77 0 0 0 2.778 2.778h19.447a2.77 2.77 0 0 0 2.778-2.778v-4.167z"/></g><g fill="#eee" paint-order="stroke fill markers"><use href="#a"/><path d="m10.789 23.289-.262-.627H9.079l-.262.627h-.588l1.3-2.963h.588l1.283 2.963zm-1.507-1.113h1.041l-.516-1.245zm1.845-1.851h2.417v.504h-.923v2.46h-.572v-2.46h-.923zm2.819 0h.567v2.963h-.567zm2.644-.038q.44 0 .8.199.364.199.572.546.207.347.207.77t-.207.775q-.207.347-.572.55-.36.203-.8.203t-.804-.203q-.36-.203-.567-.55-.207-.351-.207-.775 0-.423.207-.77t.567-.546q.364-.199.804-.199m.009.508q-.271 0-.504.135-.233.131-.368.364-.135.229-.135.508t.135.512q.14.233.368.368.233.135.504.135.267 0 .495-.135.229-.135.36-.368.135-.233.135-.512t-.135-.508q-.131-.233-.36-.364-.229-.135-.495-.135"/><use x="13.411" href="#a"/></g></g><defs><path id="a" d="M7.322 20.325h.55v2.963h-.538l-1.524-2.04v2.04h-.555v-2.963h.538l1.528 2.045z"/></defs></svg>
